X:1
T:La Souri
T:La Souri
T:Conterdans / C.Cd.047
T:d'Aubat 'St. Flour' Jean-Baptiste Robert (1714-1782)
T:BRON https://lib.ugent.be/en/catalog/rug01:000375129:  Cent contredanses en rond... , d'Aubat de St. Flour 
T:Genoteerd door Van der Elst Johan
C:d'Aubat 'St. Flour' Jean-Baptiste Robert (1714-1782)
Z:Genoteerd door Van der Elst Johan
%%score 1 2
L:1/8
Q:1/4=120
M:6/8
K:C
V:1 treble nm="Viool"
V:2 bass nm="Cello"
V:1
 CEG | CEG B,DG | B,DG A,D^F | A,D^F B,DG | B,DG FBd | Bdf EGc | ceg afd | gec fdB | c3 :: DEG | %10
 _BGE FAc | f3 D^FA | cA^F GBd | g3 ecA | ^fdB ge^c | d3 ecA | dBG cA^F | G3 CEG | CEG B,DG | %19
 B,DG A,D^F | A,D^F B,DG | B,DG FBd | Bdf EGc | ceg afd | gec fdB | c3 :| %26
V:2
 z2 z | C,3 G,,3 | G,,3 ^D,3 | ^D,3 G,,3 | G,,3 G,,3 | G,,3 C,3 | C,3 F,3 | G,3 G,,3 | CG,E, :: %9
 C,2 z | _C,3 F,3 | F,C,A,, ^F,,3 | ^F,,2 D,, G,,2 z | G,D,B,, C,3 | ^D,3 ^E,3 | D,^F,A, C3 | %16
 B,3 ^A,3 | G,D,B,, C,3 | C,3 G,,3 | G,,3 ^D,3 | ^D,3 G,,3 | G,,3 G,,3 | G,,3 C,3 | E,3 F,3 | %24
 G,3 G,,3 | C,3 :| %26

